X: 25
T:Assoulis
O:Armenia
F: http://www.youtube.com/watch?v=_JSNyNq9yH0
F: http://www.youtube.com/watch?v=OvcLC3LJzEc
M:4/4
L:1/4
K:Gm octave=-1
Q:1/4=160
%%MIDI program 71
%%MIDI bassprog 45
%%MIDI chordprog 117
"G"FGGG     |B B/c/ d2|"D"c d d/c/d |"G"c B B z|
B B/d/c/d/ B|B B/d/ c2|"D"c d d/c/ d|c B B z   |


